X:1
T:Title
%%score { ( 1 3 4 ) | 2 }
L:1/8
M:4/4
K:G
V:1 treble nm="Grand Piano"
V:3 treble 
V:4 treble 
V:2 bass 
V:1
 z4 z2[Q:1/4=100] D>G | B>_B =B>D G2 A2 | [DB]6 z2 | B>A ^G>A B2 F2 | G6 z2 | B>_B =B>D G2 A2 | %6
 [DB]6 z2 | z4 B4 | z2 G4 z2 | D>E F>G A>^G A>D | B6[K:bass] z2 | D>E[K:treble] F>G A>^G A>D | %12
 B6 z2 | B>_B =B>D G2 A2 | [DB]6 z2 | B2 A2 z2 z B |[M:3/4] z2 G4 |] %17
V:2
 z8 | G,,2 [D,G,B,]2 [D,G,B,]2 [^D,G,C^D]2 | G,,2 [D,G,]2 [D,G,]2 [D,G,B,]2 | %3
 D,,2 [D,F,C]2 [D,F,C]2 [D,F,C]2 | G,,2 [D,G,]2 [D,G,]2 z2 | G,,2 [D,G,B,]2 [D,G,B,]2 [^D,G,C^D]2 | %6
 G,,2 [D,G,]2 [D,G,]2 [D,G,B,]2 | D,,2 [D,F,C]2 [D,F,C]2 [D,F,]2 | G,,2 [D,G,B,]2 [D,G,]2 z2 | %9
 D,,2 [D,F,C]2 [D,F,C]2 [D,F,C]2 | G,,2 [D,G,]2 [D,G,]2 [D,G,]2 | D,,2 [D,F,C]2 [D,F,C]2 [D,F,C]2 | %12
 G,,2 [D,G,]2 [D,G,]2 z2 | G,,2 [D,G,B,]2 [D,G,B,]2 [^D,G,C^D]2 | G,,2 [D,G,]2 [D,G,]2 [D,G,B,]2 | %15
 D,,2 [D,F,C]2 [D,F,C]2 [D,F,]2 |[M:3/4] G,,2 [D,G,B,]2 [D,G,]2 |] %17
V:3
 x8 | x8 | z2 B,2 B,2 B>c | x8 | z2 B,2 B,2 D>G | x8 | z2 B,2 B,2 B>c | B2 A2 z2 z A | %8
 A2 z2 B,2 z2 | x8 | z2[K:bass] B,2 B,2 B,2 | x2[K:treble] x6 | z2 B,2 B,2 D>G | x8 | %14
 z2 B,2 B,2 B>d | z4 A4 |[M:3/4] A2 z2 B,2 |] %17
V:4
 x8 | x8 | x8 | x8 | x8 | x8 | x8 | z4 z2 C2 | x8 | x8 | x2[K:bass] x6 | x2[K:treble] x6 | x8 | %13
 x8 | x8 | z4 z2 C2 |[M:3/4] x6 |] %17

